packages/gestalt-icons-android/vr-theme/ic_vr_compose_gestalt.svg

<svg width="24" height="24" viewBox="0 0 24 24" fill="none" xmlns="http://www.w3.org/2000/svg">
<path fill-rule="evenodd" clip-rule="evenodd" d="M12.5251 1.06028C13.892 -0.306553 16.108 -0.306552 17.4749 1.06028L18.9393 2.52475C20.3062 3.89159 20.3062 6.10766 18.9393 7.4745L18.1213 8.29289C18.1118 8.30244 18.1022 8.31191 18.0925 8.3213L8.93371 17.4801C8.63895 17.7749 8.25947 17.9702 7.84829 18.0387L3.54535 18.7559C2.19171 18.9815 1.01816 17.8079 1.24376 16.4543L1.96092 12.1513C2.02945 11.7402 2.22474 11.3607 2.5195 11.0659L12.5251 1.06028ZM11.6787 6.09253C11.6881 6.10217 11.6976 6.11177 11.7071 6.12132L13.8787 8.29289C13.8882 8.30244 13.8978 8.31191 13.9075 8.3213L14.5858 8.99962L7.5195 16.0659L3.21655 16.7831L3.93371 12.4801L11 5.41384L11.6787 6.09253ZM13.105 4.69045C12.7309 4.29878 12.7363 3.67791 13.1213 3.29289L13.9393 2.4745C14.5251 1.88871 15.4749 1.88871 16.0607 2.4745L17.5251 3.93896C18.1109 4.52475 18.1109 5.4745 17.5251 6.06028L16.6904 6.89499C16.3044 7.26377 15.6956 7.26377 15.3096 6.89499L13.105 4.69045Z" fill="black"/>
<path d="M23 21.9996L1 21.9996V19.9996L23 19.9996V21.9996Z" fill="black"/>
</svg>

<svg xmlns="http://www.w3.org/2000/svg" width="24" height="24"><path d="M12.53 1.06a3.5 3.5 0 0 1 4.94 0l1.47 1.46a3.5 3.5 0 0 1 0 4.95l-.82.82-.03.03-9.16 9.16a2 2 0 0 1-1.08.56l-4.3.72a2 2 0 0 1-2.3-2.3l.71-4.3a2 2 0 0 1 .56-1.1zM11 5.41l-7.07 7.07-.71 4.3 4.3-.71L14.59 9l-.68-.68-.03-.03-2.17-2.17-.03-.03zm4.31 1.48a1 1 0 0 0 1.38 0l.84-.83a1.5 1.5 0 0 0 0-2.12l-1.47-1.47a1.5 1.5 0 0 0-2.12 0l-.82.82a1 1 0 0 0-.01 1.4zM23 22H1v-2h22z"/></svg>
